X: 5
T: Cloch Na Ceithre Mhile
R: reel
M: 4/4
L: 1/8
K: Ddor
D2AD D2AD|D2cA GEDE|C2(3EDC GCED|CEE2 CEGE|D2AD D2de|e/e/d ec dcde|e/e/d ec dcAd|cAGE CDDC:|Dded aded|DAA2 G2EC|DCGC ACG2|(3gag (3ege (3cdc GD|EAdd de (3fga|dc AGA2de|e/e/d ec dcAd|cAGE CDDC:|


Tune 989	Setting 989

